X: 18
T: Miss Dundas's Gigg
%R: jig
B: Stewart "A Select Collection of Airs, Jigs, Marches and Reels", ca.1784, p.9 #18
F: http://imslp.org/wiki/A_Select_Collection_of_Airs,_Jigs,_Marches_and_Reels_%28Various%29
Z: 2017 John Chambers <jc:trillian.mit.edu>
M: 6/8
L: 1/8
K: D
(f/g/) |\
afd (Tdcd) | e2e- efg | aba agf | Te2d- dgb |\
afd (Tdcd) | e2e- efg | afd (Te>de) | d3- d2 :|
|: (f/g/) |\
afd afd | bg^d ege | gec gec | afd dfd |\
afd afd | bge c'af | d'fd (Te>de) | d3- d2 :|

%%sep 1 1 500
%%sep 1 1 500

